img/svg/dialogmoter_hover.svg

<?xml version="1.0" encoding="UTF-8"?>
<svg width="32px" height="32px" viewBox="0 0 32 32" version="1.1" xmlns="http://www.w3.org/2000/svg" xmlns:xlink="http://www.w3.org/1999/xlink">
    <!-- Generator: Sketch 41.2 (35397) - http://www.bohemiancoding.com/sketch -->
    <title>Dialogmøter hover</title>
    <desc>Created with Sketch.</desc>
    <defs></defs>
    <g id="Page-1" stroke="none" stroke-width="1" fill="none" fill-rule="evenodd">
        <g id="Dialogmøter-hover" fill="#3E3832">
            <g id="Group">
                <rect id="Rectangle-path" x="16" y="21.3333333" width="5.33333333" height="4"></rect>
                <rect id="Rectangle-path" x="9.33333333" y="21.3333333" width="5.33333333" height="4"></rect>
                <rect id="Rectangle-path" x="16" y="16" width="5.33333333" height="4"></rect>
                <rect id="Rectangle-path" x="9.33333333" y="16" width="5.33333333" height="4"></rect>
                <path d="M0,31.3333333 C0,31.7013333 0.298666667,32 0.666666667,32 L31.3333333,32 C31.7013333,32 32,31.7013333 32,31.3333333 L32,10.6666667 L0,10.6666667 L0,31.3333333 Z" id="Shape"></path>
                <path d="M31.3333333,2.66666667 L26.6666667,2.66666667 L26.6666667,0.666666667 C26.6666667,0.298666667 26.368,0 26,0 L22,0 C21.632,0 21.3333333,0.298666667 21.3333333,0.666666667 L21.3333333,2.66666667 L10.6666667,2.66666667 L10.6666667,0.666666667 C10.6666667,0.298666667 10.368,0 10,0 L6,0 C5.632,0 5.33333333,0.298666667 5.33333333,0.666666667 L5.33333333,2.66666667 L0.666666667,2.66666667 C0.298666667,2.66666667 0,2.96533333 0,3.33333333 L0,9.33333333 L32,9.33333333 L32,3.33333333 C32,2.96533333 31.7013333,2.66666667 31.3333333,2.66666667 Z M9.33333333,5.33333333 L6.66666667,5.33333333 L6.66666667,1.33333333 L9.33333333,1.33333333 L9.33333333,5.33333333 Z M25.3333333,5.33333333 L22.6666667,5.33333333 L22.6666667,1.33333333 L25.3333333,1.33333333 L25.3333333,5.33333333 Z" id="Shape"></path>
            </g>
        </g>
    </g>
</svg>

<svg width="32" height="32" xmlns="http://www.w3.org/2000/svg"><g fill="#3E3832" fill-rule="evenodd"><path d="M16 21.333h5.333v4H16zM9.333 21.333h5.333v4H9.333zM16 16h5.333v4H16zM9.333 16h5.333v4H9.333z"/><path d="M0 31.333c0 .368.299.667.667.667h30.666a.667.667 0 0 0 .667-.667V10.667H0v20.666zM31.333 2.667h-4.666v-2A.667.667 0 0 0 26 0h-4a.667.667 0 0 0-.667.667v2H10.667v-2A.667.667 0 0 0 10 0H6a.667.667 0 0 0-.667.667v2H.667A.667.667 0 0 0 0 3.333v6h32v-6a.667.667 0 0 0-.667-.666zm-22 2.666H6.667v-4h2.666v4zm16 0h-2.666v-4h2.666v4z"/></g></svg>
